img/levels/icon3.svg

<svg width="100" height="100" viewBox="0 0 100 100" fill="none" xmlns="http://www.w3.org/2000/svg">
<g clip-path="url(#clip0_206_34781)">
<path opacity="0.8" d="M100.421 50.0687C100.421 56.563 99.1579 63.0573 96.7368 69.1326C94.2105 75.1031 90.5263 80.6547 86 85.2635C81.3684 89.8724 75.8947 93.6432 69.7895 96.1571C63.7895 98.671 57.1579 100.033 50.6316 100.137C44 100.137 37.4737 98.9853 31.3684 96.4714C25.2631 93.9574 19.5789 90.2913 14.9473 85.6825C10.2105 81.0737 6.5263 75.4173 3.89472 69.3421C1.3684 63.2668 0 56.6678 0 50.0687C0 43.4697 1.3684 36.8707 3.89472 30.7954C6.42103 24.7201 10.2105 19.1686 14.9473 14.455C19.6842 9.84616 25.2631 6.18003 31.3684 3.66612C37.4737 1.15221 44.1052 0 50.6316 0C57.2631 0.104746 63.7895 1.36171 69.7895 3.98036C75.7895 6.49428 81.3684 10.2651 86 14.874C90.6316 19.4828 94.3158 25.0344 96.7368 31.0049C99.1579 37.0802 100.421 43.5745 100.421 50.0687ZM100.421 50.0687C100.421 43.5745 99.0526 37.0802 96.5263 31.1097C94 25.1391 90.3158 19.6923 85.6842 15.0835C81.0526 10.4746 75.4737 6.91326 69.4737 4.5041C63.4737 2.09493 56.9474 0.83798 50.5263 0.942726C44 1.04747 37.5789 2.30443 31.6842 4.81834C25.6842 7.33225 20.3158 10.9984 15.7895 15.6072C11.2632 20.1113 7.57894 25.5581 5.15789 31.5286C2.73684 37.3944 1.47368 43.8887 1.47368 50.2782C1.47368 56.6678 2.73684 63.0573 5.15789 69.0278C7.57894 74.9984 11.2632 80.3404 15.7895 84.9493C20.3158 89.4533 25.7894 93.2242 31.6842 95.7381C37.5789 98.2521 44.1053 99.6137 50.5263 99.6137C57.0526 99.6137 63.4737 98.4615 69.4737 96.0524C75.4737 93.6432 81.0526 89.9771 85.6842 85.473C90.3158 80.8642 94 75.4174 96.5263 69.4468C99.0526 63.0573 100.316 56.563 100.421 50.0687Z" fill="url(#paint0_linear_206_34781)"/>
<path d="M57.5455 48V42H53.9091V48H48.4545V52H53.9091V58H57.5455V52H63V48H57.5455ZM37.5455 54C41.5636 54 44.8182 50.42 44.8182 46C44.8182 41.58 41.5636 38 37.5455 38C33.5273 38 30.2727 41.58 30.2727 46C30.2727 50.42 33.5273 54 37.5455 54ZM37.5455 42C39.5455 42 41.1818 43.8 41.1818 46C41.1818 48.2 39.5455 50 37.5455 50C35.5455 50 33.9091 48.2 33.9091 46C33.9091 43.8 35.5455 42 37.5455 42ZM49.1636 59.12C46.1091 57.4 42.1455 56 37.5455 56C32.9455 56 28.9818 57.4 25.9273 59.12C24.1091 60.14 23 62.2 23 64.44V70H52.0909V64.44C52.0909 62.2 50.9818 60.14 49.1636 59.12ZM48.4545 66H26.6364V64.44C26.6364 63.68 27 63 27.5818 62.68C29.7455 61.46 33.2364 60 37.5455 60C41.8545 60 45.3455 61.46 47.5091 62.68C48.0909 63 48.4545 63.68 48.4545 64.44V66Z" fill="url(#paint1_linear_206_34781)"/>
<path d="M70.5391 34.1328C70.5391 34.8464 70.3229 35.4531 69.8906 35.9531C69.4583 36.4531 68.8516 36.7969 68.0703 36.9844V37.0312C68.9922 37.1458 69.6901 37.4271 70.1641 37.875C70.638 38.3177 70.875 38.9167 70.875 39.6719C70.875 40.7708 70.4766 41.6276 69.6797 42.2422C68.8828 42.8516 67.7448 43.1562 66.2656 43.1562C65.026 43.1562 63.9271 42.9505 62.9688 42.5391V40.4844C63.4115 40.7083 63.8984 40.8906 64.4297 41.0312C64.9609 41.1719 65.487 41.2422 66.0078 41.2422C66.8047 41.2422 67.3932 41.1068 67.7734 40.8359C68.1536 40.5651 68.3438 40.1302 68.3438 39.5312C68.3438 38.9948 68.125 38.6146 67.6875 38.3906C67.25 38.1667 66.5521 38.0547 65.5938 38.0547H64.7266V36.2031H65.6094C66.4948 36.2031 67.1406 36.0885 67.5469 35.8594C67.9583 35.625 68.1641 35.2266 68.1641 34.6641C68.1641 33.7995 67.6224 33.3672 66.5391 33.3672C66.1641 33.3672 65.7812 33.4297 65.3906 33.5547C65.0052 33.6797 64.5755 33.8958 64.1016 34.2031L62.9844 32.5391C64.026 31.7891 65.2682 31.4141 66.7109 31.4141C67.8932 31.4141 68.8255 31.6536 69.5078 32.1328C70.1953 32.612 70.5391 33.2786 70.5391 34.1328ZM80.0625 37.2891C80.0625 39.2839 79.7344 40.7604 79.0781 41.7188C78.4271 42.6771 77.4219 43.1562 76.0625 43.1562C74.7448 43.1562 73.75 42.6615 73.0781 41.6719C72.4115 40.6823 72.0781 39.2214 72.0781 37.2891C72.0781 35.2734 72.4036 33.7891 73.0547 32.8359C73.7057 31.8776 74.7083 31.3984 76.0625 31.3984C77.3802 31.3984 78.375 31.8984 79.0469 32.8984C79.724 33.8984 80.0625 35.362 80.0625 37.2891ZM74.4766 37.2891C74.4766 38.6901 74.5964 39.6953 74.8359 40.3047C75.0807 40.9089 75.4896 41.2109 76.0625 41.2109C76.625 41.2109 77.0312 40.9036 77.2812 40.2891C77.5312 39.6745 77.6562 38.6745 77.6562 37.2891C77.6562 35.888 77.5286 34.8828 77.2734 34.2734C77.0234 33.6589 76.6198 33.3516 76.0625 33.3516C75.4948 33.3516 75.0885 33.6589 74.8438 34.2734C74.599 34.8828 74.4766 35.888 74.4766 37.2891Z" fill="url(#paint2_linear_206_34781)"/>
</g>
<defs>
<linearGradient id="paint0_linear_206_34781" x1="50.2105" y1="0" x2="50.2105" y2="100.137" gradientUnits="userSpaceOnUse">
<stop stop-color="#842637"/>
<stop offset="1" stop-color="#F53E5D"/>
</linearGradient>
<linearGradient id="paint1_linear_206_34781" x1="43" y1="38" x2="43" y2="70" gradientUnits="userSpaceOnUse">
<stop stop-color="#842637"/>
<stop offset="1" stop-color="#F53E5D"/>
</linearGradient>
<linearGradient id="paint2_linear_206_34781" x1="71.5" y1="30" x2="71.5" y2="43" gradientUnits="userSpaceOnUse">
<stop stop-color="#842637"/>
<stop offset="1" stop-color="#F53E5D"/>
</linearGradient>
<clipPath id="clip0_206_34781">
<rect width="100" height="100" fill="white"/>
</clipPath>
</defs>
</svg>

<svg width="100" height="100" fill="none" xmlns="http://www.w3.org/2000/svg"><g clip-path="url(#clip0_206_34781)"><path opacity=".8" d="M100.421 50.069c0 6.494-1.263 12.988-3.684 19.064-2.526 5.97-6.21 11.522-10.737 16.13-4.632 4.61-10.105 8.38-16.21 10.894-6 2.514-12.632 3.876-19.158 3.98-6.632 0-13.158-1.152-19.264-3.666-6.105-2.514-11.79-6.18-16.42-10.788-4.738-4.61-8.422-10.266-11.053-16.34C1.368 63.266 0 56.667 0 50.068c0-6.6 1.368-13.198 3.895-19.274C6.42 24.72 10.21 19.17 14.947 14.455A51.897 51.897 0 0131.368 3.666C37.474 1.152 44.105 0 50.632 0c6.631.105 13.157 1.362 19.158 3.98 6 2.514 11.578 6.285 16.21 10.894a48.723 48.723 0 0110.737 16.13c2.42 6.076 3.684 12.57 3.684 19.065zm0 0c0-6.495-1.368-12.989-3.895-18.96a50.253 50.253 0 00-10.842-16.026c-4.631-4.608-10.21-8.17-16.21-10.579-6-2.41-12.527-3.666-18.948-3.561C44 1.047 37.58 2.304 31.684 4.818a48.514 48.514 0 00-15.895 10.79c-4.526 4.503-8.21 9.95-10.631 15.92-2.421 5.866-3.684 12.36-3.684 18.75 0 6.39 1.263 12.78 3.684 18.75 2.42 5.97 6.105 11.312 10.631 15.921 4.527 4.504 10 8.275 15.895 10.79 5.895 2.513 12.421 3.875 18.842 3.875 6.527 0 12.948-1.153 18.948-3.562s11.579-6.075 16.21-10.579a50.253 50.253 0 0010.842-16.026c2.527-6.39 3.79-12.884 3.895-19.378z" fill="url(#paint0_linear_206_34781)"/><path d="M57.545 48v-6H53.91v6h-5.454v4h5.454v6h3.636v-6H63v-4h-5.455zm-20 6c4.019 0 7.273-3.58 7.273-8s-3.254-8-7.273-8c-4.018 0-7.272 3.58-7.272 8s3.254 8 7.272 8zm0-12c2 0 3.637 1.8 3.637 4s-1.637 4-3.637 4-3.636-1.8-3.636-4 1.636-4 3.636-4zm11.619 17.12C46.109 57.4 42.145 56 37.545 56s-8.563 1.4-11.618 3.12C24.11 60.14 23 62.2 23 64.44V70h29.09v-5.56c0-2.24-1.108-4.3-2.926-5.32zm-.71 6.88H26.637v-1.56c0-.76.364-1.44.946-1.76 2.163-1.22 5.654-2.68 9.963-2.68 4.31 0 7.8 1.46 9.964 2.68.582.32.946 1 .946 1.76V66z" fill="url(#paint1_linear_206_34781)"/><path d="M70.54 34.133c0 .713-.217 1.32-.65 1.82-.432.5-1.038.844-1.82 1.031v.047c.922.115 1.62.396 2.094.844.474.443.711 1.042.711 1.797 0 1.099-.398 1.956-1.195 2.57-.797.61-1.935.914-3.414.914-1.24 0-2.339-.206-3.297-.617v-2.055c.442.224.93.407 1.46.547.532.14 1.058.211 1.579.211.797 0 1.385-.135 1.765-.406.38-.27.57-.706.57-1.305 0-.536-.218-.916-.656-1.14-.437-.224-1.135-.336-2.093-.336h-.867v-1.852h.882c.886 0 1.532-.114 1.938-.344.411-.234.617-.632.617-1.195 0-.864-.542-1.297-1.625-1.297a3.75 3.75 0 00-1.148.188c-.386.125-.816.34-1.29.648l-1.117-1.664c1.042-.75 2.284-1.125 3.727-1.125 1.182 0 2.115.24 2.797.719.687.479 1.031 1.146 1.031 2zm9.522 3.156c0 1.995-.328 3.471-.984 4.43-.65.958-1.656 1.437-3.016 1.437-1.317 0-2.312-.495-2.984-1.484-.666-.99-1-2.45-1-4.383 0-2.016.326-3.5.977-4.453.65-.958 1.653-1.438 3.007-1.438 1.318 0 2.313.5 2.985 1.5.677 1 1.016 2.464 1.016 4.391zm-5.585 0c0 1.401.12 2.406.359 3.016.245.604.654.906 1.227.906.562 0 .968-.307 1.218-.922.25-.614.375-1.614.375-3 0-1.401-.127-2.406-.383-3.016-.25-.614-.653-.921-1.21-.921-.568 0-.975.307-1.22.921-.244.61-.366 1.615-.366 3.016z" fill="url(#paint2_linear_206_34781)"/></g><defs><linearGradient id="paint0_linear_206_34781" x1="50.211" y1="0" x2="50.211" y2="100.137" gradientUnits="userSpaceOnUse"><stop stop-color="#842637"/><stop offset="1" stop-color="#F53E5D"/></linearGradient><linearGradient id="paint1_linear_206_34781" x1="43" y1="38" x2="43" y2="70" gradientUnits="userSpaceOnUse"><stop stop-color="#842637"/><stop offset="1" stop-color="#F53E5D"/></linearGradient><linearGradient id="paint2_linear_206_34781" x1="71.5" y1="30" x2="71.5" y2="43" gradientUnits="userSpaceOnUse"><stop stop-color="#842637"/><stop offset="1" stop-color="#F53E5D"/></linearGradient><clipPath id="clip0_206_34781"><path fill="#fff" d="M0 0h100v100H0z"/></clipPath></defs></svg>
